X:1
T: The Paps o' Orkney
C:Ian Lowthian
R:Jig
Q:180
K:D
M:6/8
L:1/16
DE|:F2A2F2 E2A2E2|D2A2D2 C2A2C2|B,2D2B,2 A,2D2F2|A2G2F2 E2D2E2|
F2A2F2 E2A2E2|D2A2D2 C2A2C2|B,2D2B,2 A,2D2F2|1E2D2C2 D4E2:||2E2D2C2 D2d2c2|
B2d2B2 ^A2d2A2|=A2d2A2 ^G2d2G2|=G2d2G2 F2d2F2|A2G2F2 E2d2c2|
B2d2B2 ^A2d2A2|=A2d2A2 ^G2d2G2|=G2d2G2 F2A2F2|E2D2C2 D2d2c2|
B2d2B2 ^A2d2A2|=A2d2A2 ^G2d2G2|=G2d2G2 F2d2F2|A2G2F2 E2D2E2|
F2A2F2 E2A2E2|D2A2D2 C2A2C2|B,2D2B,2 A,2D2F2|E2D2C2 D4||
